packages/core/src/svgs/nsbt.svg

<svg width="24" height="24" viewBox="0 0 24 24" fill="none" xmlns="http://www.w3.org/2000/svg">
<g clip-path="url(#clip0_31_14982)">
<path d="M0 0H24V24H0V0Z" fill="#F0F3FA"/>
<path d="M11.9999 4.28564L19.7142 11.9999L11.9999 19.7142L4.28564 11.9999L11.9999 4.28564Z" fill="#6A53F3"/>
<path d="M4.28564 12.0001C4.28564 12.0001 6.30422 10.7144 8.23279 10.7144C10.1614 10.7144 13.2471 12.8572 15.7114 12.8572C17.9399 12.8572 19.4356 12.1715 19.6928 12.0258L11.9999 19.7144L4.28564 12.0001Z" fill="#5428DB"/>
<path d="M7.28564 11.5713H9.85707V12.4284H7.28564V11.5713ZM14.1428 11.5713H16.7142V12.4284H14.1428V11.5713Z" fill="#F0F3FA"/>
<path d="M9 15.4284H9.85714V8.57129H9V15.4284ZM14.1429 15.4284H15V8.57129H14.1429V15.4284ZM9.85714 8.57129L14.1429 13.9541V15.4284L9.85714 10.0756V8.57129Z" fill="#F0F3FA"/>
</g>
<defs>
<clipPath id="clip0_31_14982">
<rect width="24" height="24" fill="white"/>
</clipPath>
</defs>
</svg>

<svg xmlns="http://www.w3.org/2000/svg" width="24" height="24" fill="none" viewBox="0 0 24 24"><g clip-path="url(#a)"><path fill="#F0F3FA" d="M0 0h24v24H0z"/><path fill="#6A53F3" d="M12 4.286 19.714 12 12 19.714 4.286 12z"/><path fill="#5428DB" d="M4.286 12s2.018-1.286 3.947-1.286c1.928 0 5.014 2.143 7.478 2.143 2.229 0 3.725-.685 3.982-.831L12 19.714z"/><path fill="#F0F3FA" d="M7.286 11.571h2.571v.857H7.286zm6.857 0h2.571v.857h-2.571z"/><path fill="#F0F3FA" d="M9 15.428h.857V8.571H9zm5.143 0H15V8.571h-.857zM9.857 8.571l4.286 5.383v1.474l-4.286-5.352z"/></g><defs><clipPath id="a"><path fill="#fff" d="M0 0h24v24H0z"/></clipPath></defs></svg>
